X: 286
T:Guadalquivir
Z:Fernando Formigo
Z:Jack Campin, http://www.campin.me.uk/
S:a PDF book "Andean Melodies" off the web
M:2/4
L:1/16
Q:1/4=60
K:G
GB2d eg2e|d2B2 G4|AB2A AB2A|G2B2 d4 |
GB2d eg2e|d2B2 G4|AB2A AB2A|G2G2 G4||
d2g2 d2g2|B3g  d4|B2d2 B2d2|g3d  B4 |
G2B2 G2B2|d3B  G4|GB2d ed2B|G2G2 G4||
ee2e e3c |ec2e g4|dd2d d3B |dB2d g4 |
cc2c c3A |cA2c f4|dd2d de2d|[1 dGAB cBcd:|\
                            [2 dd2d dcBA |G2G2 G4|]

A common idea in art music is to shift between major and minor
keys using the same pitch set ("relative" major and minor keys,
like C major and A minor).  This is an example from Scottish
music, mostly in A major but moving into F# minor at the start
of the second part:

